svg/u1f9c4.svg

<svg viewBox="0 0 128 128" xmlns="http://www.w3.org/2000/svg">
  <path d="M63.2,98.97l-16.13,10.8c0,0,3.79,1.95,5.53,5.16c2.1,3.87,0.81,6.52,1.72,6.79 c0.73,0.22,2.77-0.42,3.35-1.54c0.72-1.4,0.68-2.36,0.68-2.36s1.06,0.68,2.67,3.4c1.06,1.8,1.63,3.67,2.72,3.67 c1.45,0,1.72-1.86,1.81-2.94s0.17-3.09,0.17-3.09s2.04,3.69,2.85,4.5s2.19,1.17,2.78-0.01c0.59-1.18,0.35-2.75,1.5-5.67 c1.65-4.18,6.83-9.23,6.83-9.23L63.2,98.97z" fill="#BB9176"/>
  <radialGradient id="SVGID_1_" cx="64.6121" cy="87.3741" gradientUnits="userSpaceOnUse" r="115.0177">
    <stop offset="0.1815" stop-color="#EDDFDF"/>
    <stop offset="0.3345" stop-color="#E7CED1"/>
    <stop offset="0.5191" stop-color="#E3C1C6"/>
    <stop offset="0.6898" stop-color="#E1BDC2"/>
  </radialGradient>
  <path d="M27.4,96.62c0,0,3.29,7.55,9.33,10.51c8.14,3.99,14.95,2.63,14.95,2.63s5.17,4.17,13.68,4.17 c8.52,0,16.31-6.98,16.31-6.98s5.45,2.12,13.41-2.18c6.89-3.72,7.43-9.24,7.43-9.24s6.71-2.72,8.97-9.7 c2.27-6.98,2.3-14.69-2.36-21.93c-4.89-7.61-19.94-17.22-22.38-19.12c-2.45-1.9-10.69-7.16-12.51-11.33s-3.2-13.16-3.35-17.7 c-0.24-7.33,0.36-10.94-1.64-12.03c-1.99-1.09-5.8,1.09-7.79,1.99s-6.62,3.21-6.93,4.18s0.68,6.06,0.04,12.31 c-0.63,6.25-2.29,12.31-6.43,16.22c-9.61,9.06-20.84,13.5-26.92,22.11s-7.98,19.94-3.35,27.46C22.5,95.53,27.4,96.62,27.4,96.62z" fill="url(#SVGID_1_)"/>
  <radialGradient id="SVGID_2_" cx="64.5646" cy="66.3711" gradientTransform="matrix(-9.953669e-03 -1 1.9707 -0.0196 -65.5923 132.2345)" gradientUnits="userSpaceOnUse" r="26.0485">
    <stop offset="0" stop-color="#F8F6F7" stop-opacity="0.7"/>
    <stop offset="0.8237" stop-color="#F8F6F7" stop-opacity="0"/>
  </radialGradient>
  <path d="M27.4,96.62c0,0,3.29,7.55,9.33,10.51c8.14,3.99,14.95,2.63,14.95,2.63s5.17,4.17,13.68,4.17 c8.52,0,16.31-6.98,16.31-6.98s5.45,2.12,13.41-2.18c6.89-3.72,7.43-9.24,7.43-9.24s6.71-2.72,8.97-9.7 c2.27-6.98,2.3-14.69-2.36-21.93c-4.89-7.61-14.05-13.56-22.38-19.12c-2.58-1.72-10.69-7.16-12.51-11.33s-3.27-12.1-3.47-16.63 c-0.25-5.79-15.56-0.86-16.2,5.39c-0.63,6.25-2.29,12.31-6.43,16.22c-9.61,9.06-20.84,13.5-26.92,22.11s-7.98,19.94-3.35,27.46 C22.5,95.53,27.4,96.62,27.4,96.62z" fill="url(#SVGID_2_)"/>
  <radialGradient id="SVGID_3_" cx="25.9323" cy="98.5967" gradientUnits="userSpaceOnUse" r="35.8174">
    <stop offset="0.1815" stop-color="#C8A9B3"/>
    <stop offset="0.488" stop-color="#D2B2BA"/>
    <stop offset="0.6898" stop-color="#DBBAC0"/>
  </radialGradient>
  <path d="M40.35,64.12c0,0-11.79,3.91-16.1,14.2c-3.29,7.85-1.62,15.41-1.62,15.41s1.44,1.6,2.55,2.08 c1.12,0.48,2.21,0.81,2.21,0.81s0.74,1.67,1.38,2.62s2.24,3.03,2.24,3.03s-2.18-5.81-0.07-16.19 C33.88,71.65,40.35,64.12,40.35,64.12z" fill="url(#SVGID_3_)"/>
  <radialGradient id="SVGID_4_" cx="107.7365" cy="91.951" gradientUnits="userSpaceOnUse" r="38.4421">
    <stop offset="0.1259" stop-color="#B494A7"/>
    <stop offset="0.2826" stop-color="#BB9BAC"/>
    <stop offset="0.5996" stop-color="#C4A5B2"/>
  </radialGradient>
  <path d="M87.61,56.45c0,0,9.82,11.42,12.67,19.19c4.93,13.45,2.24,19.88,2.24,19.88 s3.28-0.92,5.68-3.79s3.3-6.95,1.69-14.63c-1.49-7.08-8.86-12.55-8.86-12.55l1.66,6.49c0,0-1.77-3.35-5.6-7.43 C91.95,58.14,87.61,56.45,87.61,56.45z" fill="url(#SVGID_4_)"/>
  <radialGradient id="SVGID_5_" cx="65.073" cy="6.7912" gradientUnits="userSpaceOnUse" r="108.3809">
    <stop offset="0.0942" stop-color="#A385A0"/>
    <stop offset="0.4034" stop-color="#C0A0AD"/>
    <stop offset="0.4045" stop-color="#C0A0AD"/>
    <stop offset="0.5594" stop-color="#D5B7C0"/>
    <stop offset="0.6715" stop-color="#E0C3CA"/>
  </radialGradient>
  <path d="M44.31,58.89c0,0,7.76-13.17,10.34-19.59c2.72-6.77,4.44-9.5,4.14-19.83 C58.63,14.33,57.3,7.79,57.3,7.79l2.93-1.49c0,0,3.21,8.08,4.43,17.69c1.22,9.61,1.66,15.94-3.08,30.15 c-3.94,11.81-8.52,18.37-11.56,26.04c-3.04,7.67-6.81,27.91,14.12,30.64c18.62,2.43,20.38-14.28,14.96-26.63 c-4.13-9.43-9.61-21.05-9.73-28.23s0.37-10.1,0.37-10.1s6.08,10.34,8.88,15.82c2.8,5.48,9.16,16.49,9.03,26.95 c-0.12,10.13-3.24,25.05-23.44,25.7C45.23,114.95,35.79,94.4,42.6,77.87c7.25-17.6,11.17-21.72,13.32-27.12 c2.78-6.98,2.74-10.7,2.74-10.7s-4.25,6.42-7.41,10.68C49.15,53.55,44.31,58.89,44.31,58.89z" fill="url(#SVGID_5_)"/>
  <radialGradient id="SVGID_6_" cx="64.9387" cy="86.3198" gradientUnits="userSpaceOnUse" r="52.0594">
    <stop offset="0" stop-color="#F8F6F7"/>
    <stop offset="0.7825" stop-color="#F8F6F7" stop-opacity="0"/>
  </radialGradient>
  <path d="M67.37,35.58c0,0,1.48,4.72,1.77,12.4c0.3,7.68,1.41,12.53,3.11,20.09 c1.34,5.95,8.99,15.91,9.35,28.18c0.24,8.19-3.69,15.12-15.85,14.63c-19.63-0.79-18.37-18.39-17.79-23.99 c0.63-5.94,11.29-24.29,14.24-34.19C64.13,46.24,67.37,35.58,67.37,35.58z" fill="url(#SVGID_6_)"/>
  <radialGradient id="SVGID_7_" cx="76.919" cy="46.3844" gradientUnits="userSpaceOnUse" r="63.068">
    <stop offset="0.2378" stop-color="#E0C3CA"/>
    <stop offset="0.3575" stop-color="#D8BBC5"/>
    <stop offset="0.5418" stop-color="#C3A6B6"/>
    <stop offset="0.7528" stop-color="#A385A0"/>
    <stop offset="0.8187" stop-color="#A688A2" stop-opacity="0.7052"/>
    <stop offset="0.8708" stop-color="#B092A9" stop-opacity="0.4718"/>
    <stop offset="0.9183" stop-color="#C0A3B4" stop-opacity="0.2595"/>
    <stop offset="0.9627" stop-color="#D7BAC4" stop-opacity="0.0608"/>
    <stop offset="0.9763" stop-color="#E0C3CA" stop-opacity="0"/>
  </radialGradient>
  <path d="M79.11,84.2c7.33,16.75-3.06,27.05-3.06,27.05c9.57-4.82,11.52-14.91,11.61-22.61 c0.12-10.46-6.24-21.48-9.03-26.95c-2.8-5.48-8.88-15.82-8.88-15.82s-0.49,2.92-0.37,10.1S74.95,74.79,79.11,84.2" fill="url(#SVGID_7_)"/>
</svg>

<svg viewBox="0 0 128 128" xmlns="http://www.w3.org/2000/svg">
  <defs>
    <radialGradient id="SVGID_1_" cx="64.6121" cy="87.3741" gradientUnits="userSpaceOnUse" r="115.0177">
      <stop offset="0.1815" stop-color="#EDDFDF"/>
      <stop offset="0.3345" stop-color="#E7CED1"/>
      <stop offset="0.5191" stop-color="#E3C1C6"/>
      <stop offset="0.6898" stop-color="#E1BDC2"/>
    </radialGradient>
    <radialGradient id="SVGID_2_" cx="-67.004514" cy="32.42281" gradientTransform="matrix(-0.009954 -1 1.9707 -0.0196 0 0)" gradientUnits="userSpaceOnUse" r="26.0485">
      <stop offset="0" stop-color="#F8F6F7" stop-opacity="0.7"/>
      <stop offset="0.8237" stop-color="#F8F6F7" stop-opacity="0"/>
    </radialGradient>
    <radialGradient id="SVGID_3_" cx="25.9323" cy="98.5967" gradientUnits="userSpaceOnUse" r="35.8174">
      <stop offset="0.1815" stop-color="#C8A9B3"/>
      <stop offset="0.488" stop-color="#D2B2BA"/>
      <stop offset="0.6898" stop-color="#DBBAC0"/>
    </radialGradient>
    <radialGradient id="SVGID_4_" cx="107.7365" cy="91.951" gradientUnits="userSpaceOnUse" r="38.4421">
      <stop offset="0.1259" stop-color="#B494A7"/>
      <stop offset="0.2826" stop-color="#BB9BAC"/>
      <stop offset="0.5996" stop-color="#C4A5B2"/>
    </radialGradient>
    <radialGradient id="SVGID_5_" cx="65.073" cy="6.7912" gradientUnits="userSpaceOnUse" r="108.3809">
      <stop offset="0.0942" stop-color="#A385A0"/>
      <stop offset="0.4034" stop-color="#C0A0AD"/>
      <stop offset="0.4045" stop-color="#C0A0AD"/>
      <stop offset="0.5594" stop-color="#D5B7C0"/>
      <stop offset="0.6715" stop-color="#E0C3CA"/>
    </radialGradient>
    <radialGradient id="SVGID_6_" cx="64.9387" cy="86.3198" gradientUnits="userSpaceOnUse" r="52.0594">
      <stop offset="0" stop-color="#F8F6F7"/>
      <stop offset="0.7825" stop-color="#F8F6F7" stop-opacity="0"/>
    </radialGradient>
    <radialGradient id="SVGID_7_" cx="76.919" cy="46.3844" gradientUnits="userSpaceOnUse" r="63.068">
      <stop offset="0.2378" stop-color="#E0C3CA"/>
      <stop offset="0.3575" stop-color="#D8BBC5"/>
      <stop offset="0.5418" stop-color="#C3A6B6"/>
      <stop offset="0.7528" stop-color="#A385A0"/>
      <stop offset="0.8187" stop-color="#A688A2" stop-opacity="0.7052"/>
      <stop offset="0.8708" stop-color="#B092A9" stop-opacity="0.4718"/>
      <stop offset="0.9183" stop-color="#C0A3B4" stop-opacity="0.2595"/>
      <stop offset="0.9627" stop-color="#D7BAC4" stop-opacity="0.0608"/>
      <stop offset="0.9763" stop-color="#E0C3CA" stop-opacity="0"/>
    </radialGradient>
  </defs>
  <path d="M63.2,98.97 L47.07,109.77 C47.07,109.77 50.86,111.72 52.6,114.93 C54.7,118.8 53.41,121.45 54.32,121.72 C55.05,121.94 57.09,121.3 57.67,120.18 C58.39,118.78 58.35,117.82 58.35,117.82 C58.35,117.82 59.41,118.5 61.02,121.22 C62.08,123.02 62.65,124.89 63.74,124.89 C65.19,124.89 65.46,123.03 65.55,121.95 C65.64,120.87 65.72,118.86 65.72,118.86 C65.72,118.86 67.76,122.55 68.57,123.36 C69.38,124.17 70.76,124.53 71.35,123.35 C71.94,122.17 71.7,120.6 72.85,117.68 C74.5,113.5 79.68,108.45 79.68,108.45 L63.2,98.97 Z" fill="#BB9176"/>
  <path d="M27.4,96.62 C27.4,96.62 30.69,104.17 36.73,107.13 C44.87,111.12 51.68,109.76 51.68,109.76 C51.68,109.76 56.85,113.93 65.36,113.93 C73.88,113.93 81.67,106.95 81.67,106.95 C81.67,106.95 87.12,109.07 95.08,104.77 C101.97,101.05 102.51,95.53 102.51,95.53 C102.51,95.53 109.22,92.81 111.48,85.83 C113.75,78.85 113.78,71.14 109.12,63.9 C104.23,56.29 89.18,46.68 86.74,44.78 C84.29,42.88 76.05,37.62 74.23,33.45 C72.41,29.28 71.03,20.29 70.88,15.75 C70.64,8.42 71.24,4.81 69.24,3.72 C67.25,2.63 63.44,4.81 61.45,5.71 C59.46,6.61 54.83,8.92 54.52,9.89 C54.21,10.86 55.2,15.95 54.56,22.2 C53.93,28.45 52.27,34.51 48.13,38.42 C38.52,47.48 27.29,51.92 21.21,60.53 C15.13,69.14 13.23,80.47 17.86,87.99 C22.5,95.53 27.4,96.62 27.4,96.62 Z" fill="url(#SVGID_1_)"/>
  <path d="M27.4,96.62 C27.4,96.62 30.69,104.17 36.73,107.13 C44.87,111.12 51.68,109.76 51.68,109.76 C51.68,109.76 56.85,113.93 65.36,113.93 C73.88,113.93 81.67,106.95 81.67,106.95 C81.67,106.95 87.12,109.07 95.08,104.77 C101.97,101.05 102.51,95.53 102.51,95.53 C102.51,95.53 109.22,92.81 111.48,85.83 C113.75,78.85 113.78,71.14 109.12,63.9 C104.23,56.29 95.07,50.34 86.74,44.78 C84.16,43.06 76.05,37.62 74.23,33.45 C72.41,29.28 70.96,21.35 70.76,16.82 C70.51,11.03 55.2,15.96 54.56,22.21 C53.93,28.46 52.27,34.52 48.13,38.43 C38.52,47.49 27.29,51.93 21.21,60.54 C15.13,69.15 13.23,80.48 17.86,88 C22.5,95.53 27.4,96.62 27.4,96.62 Z" fill="url(#SVGID_2_)"/>
  <path d="M40.35,64.12 C40.35,64.12 28.56,68.03 24.25,78.32 C20.96,86.17 22.63,93.73 22.63,93.73 C22.63,93.73 24.07,95.33 25.18,95.81 C26.3,96.29 27.39,96.62 27.39,96.62 C27.39,96.62 28.13,98.29 28.77,99.24 C29.41,100.19 31.01,102.27 31.01,102.27 C31.01,102.27 28.83,96.46 30.94,86.08 C33.88,71.65 40.35,64.12 40.35,64.12 Z" fill="url(#SVGID_3_)"/>
  <path d="M87.61,56.45 C87.61,56.45 97.43,67.87 100.28,75.64 C105.21,89.09 102.52,95.52 102.52,95.52 C102.52,95.52 105.8,94.6 108.2,91.73 C110.6,88.86 111.5,84.78 109.89,77.1 C108.4,70.02 101.03,64.55 101.03,64.55 L102.69,71.04 C102.69,71.04 100.92,67.69 97.09,63.61 C91.95,58.14 87.61,56.45 87.61,56.45 Z" fill="url(#SVGID_4_)"/>
  <path d="M44.31,58.89 C44.31,58.89 52.07,45.72 54.65,39.3 C57.37,32.53 59.09,29.8 58.79,19.47 C58.63,14.33 57.3,7.79 57.3,7.79 L60.23,6.3 C60.23,6.3 63.44,14.38 64.66,23.99 C65.88,33.6 66.32,39.93 61.58,54.14 C57.64,65.95 53.06,72.51 50.02,80.18 C46.98,87.85 43.21,108.09 64.14,110.82 C82.76,113.25 84.52,96.54 79.1,84.19 C74.97,74.76 69.49,63.14 69.37,55.96 C69.25,48.78 69.74,45.86 69.74,45.86 C69.74,45.86 75.82,56.2 78.62,61.68 C81.42,67.16 87.78,78.17 87.65,88.63 C87.53,98.76 84.41,113.68 64.21,114.33 C45.23,114.95 35.79,94.4 42.6,77.87 C49.85,60.27 53.77,56.15 55.92,50.75 C58.7,43.77 58.66,40.05 58.66,40.05 C58.66,40.05 54.41,46.47 51.25,50.73 C49.15,53.55 44.31,58.89 44.31,58.89 Z" fill="url(#SVGID_5_)"/>
  <path d="M67.37,35.58 C67.37,35.58 68.85,40.3 69.14,47.98 C69.44,55.66 70.55,60.51 72.25,68.07 C73.59,74.02 81.24,83.98 81.6,96.25 C81.84,104.44 77.91,111.37 65.75,110.88 C46.12,110.09 47.38,92.49 47.96,86.89 C48.59,80.95 59.25,62.6 62.2,52.7 C64.13,46.24 67.37,35.58 67.37,35.58 Z" fill="url(#SVGID_6_)"/>
  <path d="M79.11,84.2 C86.44,100.95 76.05,111.25 76.05,111.25 C85.62,106.43 87.57,96.34 87.66,88.64 C87.78,78.18 81.42,67.16 78.63,61.69 C75.83,56.21 69.75,45.87 69.75,45.87 C69.75,45.87 69.26,48.79 69.38,55.97 C69.5,63.15 74.95,74.79 79.11,84.2" fill="url(#SVGID_7_)"/>
</svg>
